X:123
T: Maria saá weinend ... (1-51), S. 126f
N: K1097
O: Luxemburg
S: KINTZELE, Guillaume: An der Ucht, Bd. 1, Luxemburg 1926]
N: in der Quelle mit einer 2. Stimme versehen
R: Untreue]
M: 6/8
L: 1/8
K: C
G | GGGAAA | GG2z2
E | EEEGGG | F3z2
F | F2GB2B | AA2z2
A | G2Gc2c | G3z2
G | c2de2d | dc2z2
c | c2cB2c | d3z2
c | B2AA2G | BB2z2
A | G2AF2G | E3z2
G | c2de2d | dc2z2
c | c2cB2c | d3z2
c | B2AA2G | BB2z2
A | G2AF2G | E3z2

